**kern	**kern	**kern
*staff3	*staff2	*staff1
*tb8	*tb8	*tb8
=1-	=1-	=1-
*clefF4	*clefG2	*clefG2
*k[b-e-a-]	*k[b-e-a-]	*k[b-e-a-]
*met(c)	*met(c)	*met(c)
*M4/4	*M4/4	*M4/4
2.EE-/ 2.E-/	8e-/L 8g/L	1r
.	8B-/	.
.	8B-/	.
.	8e-/J 8g/J	.
.	8e-/L 8g/L	.
.	8B-/	.
4DD-/ 4D-/	8B-/	.
.	8e-/J 8g/J	.
=2	=2	=2
2.CC/ 2.C/	8e-/L 8a-/L	2r
.	8c/	.
.	8c/	.
.	8e-/J 8a-/J	.
.	8f/L 8a-/L	4r
.	8B-/	.
4DDn/ 4Dn/	8B-/	8b-\
.	8f/J 8a-/J	8b-\
=3	=3	=3
4EE-/ 4E-/	8e-/L 8g/L	4b-\
.	8B-/	.
4DD/ 4D/	8B-/	8cc\
.	8e-/J 8g/J	8dd\
2CC/ 2C/	8e-/L 8g/L	8ff\L
.	8c/	8ee-\J
.	8c/	8dd\L
.	8e-/J 8g/J	8cc\J
=4	=4	=4
!!linebreak:original
2CC/ 2C/	1r	(4b-\
.	.	4a-/)
2r	.	4r
.	.	8b-\L
.	.	8cc\J
=5	=5	=5
2DD/ 2D/	8f/L 8a-/L	4.cc\
.	8B-/	.
.	8B-/	.
.	8f/J 8a-/J	8f/
2CC/ 2C/	8e-/L 8a-/L	4f/
.	8B-/	.
.	8B-/	8g/L
.	8e-/J 8a-/J	8a-/J
=6	=6	=6
1BBB-/ 1BB-/	8d/L 8a-/L	4d/
.	8B-/	.
.	8B-/	4r
.	8d/J 8a-/J	.
.	8d/L 8a-/L	8r
.	8B-/	8d/
.	8B-/	8e-/
.	8d/J 8a-/J	8f/
=7	=7	=7
!!linebreak:original
2EE-/ 2E-/	8e-/L 8g/L	8g/L
.	8B-/	8a-/J
.	8B-/	4b-\
.	8e-/J 8g/J	.
2DD/ 2D/	8e-/L 8g/L	8b-\L
.	8B-/	8bn\J
.	8B-/	8cc\L
.	8e-/J 8g/J	8dd\J
=8	=8	=8
1CC/ 1C/	8e-/L 8g/L	(4ff\
.	8c/	.
.	8c/	4ee-\)
.	8e-/J 8g/J	.
.	8e-/L 8g/L	4r
.	8c/	.
.	8c/	8dd\L
.	8e-/J 8g/J	8cc\J
=9	=9	=9
2CC#/ 2C#/	8en/L 8g/L	4b-\
.	8B-/	.
.	8B-/	8an/L
.	8e/J 8g/J	8g/J
2EEn/ 2En/	8c/L 8g/L	4b-\
.	8An/	.
.	8A/	8a/L
.	8c/J 8g/J	8g/J
=10	=10	=10
!!linebreak:original
1D/	8d/L 8f#/L	4an/
.	8An/	.
.	8A/	4r
.	8d/J 8f#/J	.
.	8d/L 8f#/L	4r
.	8A/	.
.	8A/	4d/
.	8d/J 8f#/J	.
=11	=11	=11
2GG/ 2G/	8d/L 8g/L	4bn\
.	8Bn/	.
.	8B/	4g/
.	8d/J 8g/J	.
2FF/ 2F/	8d/L 8g/L	4dd\
.	8B/	.
.	8B/	4g/
.	8d/J 8g/J	.
=12	=12	=12
1EE-/ 1E-/	8e-/L 8g/L	([2ee-\
.	8c/	.
.	8c/	.
.	8e-/J 8g/J	.
.	8e-/L 8g/L	8ee-\L]
.	8B-/	8dd-\J)
.	8B-/	8cc\L
.	8e-/J 8g/J	8b-\J
=13	=13	=13
!!linebreak:original
2AA-\ 2A-\	8e-/L 8a-/L	(4bn\
.	8c/	.
.	8c/	4cc\)
.	8e-/J 8a-/J	.
2GG/ 2G/	8en/L 8b-/L	4r
.	8c/	.
.	8c/	8cc\L
.	8e/J 8b-/J	8b-\J
=14	=14	=14
4FF/ 4F/	8f/L 8a-/L	8a-/L
.	8c/	8f/J
4EE-/ 4E-/	8c/	8cc\L
.	8f/J 8a-/J	8a-\J
4DD/ 4D/	8f/L 8a-/L	4.ff\
.	8B-/	.
4CC/ 4C/	8B-/	.
.	8f/J 8a-/J	8ee-\
=15	=15	=15
4BBB-/ 4BB-/	8f/L 8a-/L	4dd\
.	8B-/	.
4BBB-/ 4BB-/	8B-/	4r
.	8f/J 8a-/J	.
4CC/ 4C/	8f/L 8a-/L	4r
.	8B-/	.
4DD/ 4D/	8B-/	4b-\
.	8f/J 8a-/J	.
=16	=16	=16
!!linebreak:original
2EE-/ 2E-/	8e-/L 8g/L	(8ee-\L
.	8B-/	8ff\
.	8B-/	8gg\
.	8e-/J 8g/J	8dd\J
2EE-/ 2E-/	8e-/L 8g/L	8ff\L
.	8c/	8ee-\J)
.	8c/	8dd\L
.	8e-/J 8g/J	8cc\J
=17	=17	=17
2EE-/ 2E-/	8f/L 8a-/L	(8b-/L
.	8c/	8a-/
.	8c/	8g/
.	8f/J 8a-/J	8a-/J
2DD/ 2D/	8f/L 8a-/L	8dd\L
.	8B-/	8cc\J)
.	8B-/	8b-/L
.	8f/J 8a-/J	8a-/J
=18	=18	=18
4EE-/ 4E-/	8e-/L 8g/L	4g/
.	8B-/	.
4EE-/ 4E-/	8B-/	4r
.	8e-/J 8g/J	.
4FF/ 4F/	8e-/L 8a-/L	4r
.	8B-/	.
4BBB-/ 4BB-/	8B-/	4b-\
.	8e-/J 8a-/J	.
=19	=19	=19
2EE-/ 2E-/	8e-/L 8g/L	4.ee-\
.	8B-/	.
.	8B-/	.
.	8e-/J 8g/J	8e-/
2DD-/ 2D-/	8e-/L 8g/L	8e-/L
.	8B-/	8g/J
.	8B-/	8b-\L
.	8e-/J 8g/J	8ee-\J
=20	=20	=20
!!linebreak:original
2CC-/ 2C-/	8e-/L 8a-/L	4.ee-\
.	8A-/	.
.	8A-/	.
.	8e-/J 8a-/J	8e-/
2BBB-/ 2BB-/	8e-/L 8g-/L	8e-/L
.	8B-/	8g-/J
.	8B-/	8b-\L
.	8e-/J 8g-/J	8ee-\J
=21	=21	=21
2AAAn/ 2AAn/	8e-/L 8g-/L	4.ee-\
.	8c/	.
.	8c/	.
.	8e-/J 8f/J	8ff\
2FFF/ 2FF/	8e-/L 8an/L	4gg-\
.	8c/	.
.	8c/	4an/
.	8e-/J 8f/J	.
=22	=22	=22
4BBB-/ 4BB-/	8d/L	4b-\
.	8B-/	.
4AA-\ 4A-\	8d/ 8f/	4r
.	8B-/J	.
4GG/ 4G/	8e-/L 8g/L	4r
.	8B-/	.
4FF/ 4F/	8d/ 8a-/	4b-\
.	8B-/J	.
=23	=23	=23
!!linebreak:original
4EE-/ 4E-/	4B-/ 4e-/ 4g/	(8b-\
.	.	4gg\
4BBn/	4a-\ 4dd\	.
.	.	4ff\
4C/	4g/ 4cc/	.
.	.	4ee-\)
4GG/	4f/ 4bn/	.
.	.	[8dd\
=24	=24	=24
4AA-/	4e-/ 4a-/	8dd\]
.	.	4cc\
4EEn/	4d-/ 4g/	.
.	.	4b-\
4FF/	4c/ 4f/	.
.	.	4a-/
4GG/	4B-/ 4d-/	.
.	.	[8g/
=25	=25	=25
2AA-/	2A-/ 2c/	8g/L]
.	.	8en/
.	.	8f/
.	.	8g/J
2r	2r	8a-/L
.	.	8b-/J
.	.	8bn\L
.	.	8cc\J
=26	=26	=26
*^	*	*
8B-/L	1BBB-/ 1BB-/	4A-/ 4d/	2.e-/
8c/J	.	.	.
8An/J	.	4r	.
8F#/J	.	.	.
4G/ 4B-/	.	4r	.
4r	.	4r	8g/L
.	.	.	8f/J
*v	*v	*	*
=27	=27	=27
!!linebreak:original
2.EE-/ 2.E-/	8e-/L 8g/L	4e-/
.	8B-/	.
.	8B-/	4r
.	8e-/J 8g/J	.
.	8e-/L 8g/L	2r
.	8B-/	.
4DD-/ 4D-/	8B-/	.
.	8e-/J 8g/J	.
=28	=28	=28
2.CC/ 2.C/	8e-/L 8a-/L	2r
.	8c/	.
.	8c/	.
.	8e-/J 8a-/J	.
.	8f/L 8a-/L	(4.cc\
.	8B-/	.
4DDn/ 4Dn/	8B-/	.
.	8f/J 8a-/J	8b-\)
=29	=29	=29
4EE-/ 4E-/	8e-/L 8g/L	8b-\
.	8B-/	8b-\
4DD/ 4D/	8B-/	8cc\
.	8e-/J 8g/J	8dd\
2CC/ 2C/	8e-/L 8g/L	8ff\L
.	8c/	8ee-\J
.	8c/	8dd\L
.	8e-/J 8g/J	8cc\J
=30	=30	=30
!!linebreak:original
2CC/ 2C/	8e-/L 8a-/L	(4b-\
.	8c/	.
.	8c/	4a-/)
.	8e-/J 8a-/J	.
2r	8e-/L 8a-/L	4r
.	8c/	.
.	8c/	8b-\L
.	8e-/J 8a-/J	8cc\J
=31	=31	=31
2DD/ 2D/	8f/L 8a-/L	4.cc\
.	8B-/	.
.	8B-/	.
.	8f/J 8a-/J	8f/
2CC/ 2C/	8e-/L 8a-/L	4f/
.	8B-/	.
.	8B-/	8g/L
.	8e-/J 8a-/J	8a-/J
=32	=32	=32
1BBB-/ 1BB-/	8d/L 8a-/L	4d/
.	8B-/	.
.	8B-/	8r
.	8d/J 8a-/J	8d/
.	8d/L 8a-/L	4e-/
.	8B-/	.
.	8B-/	4f/
.	8d/J 8a-/J	.
=33	=33	=33
!!linebreak:original
2EE-/ 2E-/	8e-/L 8g/L	8g/
.	8B-/	8a-/
.	8B-/	([4b-\
.	8e-/J 8g/J	.
2DD/ 2D/	8e-/L 8g/L	8b-\L]
.	8B-/	8bn\J)
.	8B-/	8cc\L
.	8e-/J 8g/J	8dd\J
=34	=34	=34
1CC/ 1C/	8e-/L 8g/L	(4ff\
.	8c/	.
.	8c/	4ee-\)
.	8e-/J 8g/J	.
.	8e-/L 8g/L	4r
.	8c/	.
.	8c/	8dd\L
.	8e-/J 8g/J	8cc\J
=35	=35	=35
2CC#/ 2C#/	8en/L 8g/L	4b\
.	8B-/	.
.	8B-/	8an/L
.	8e/J 8g/J	8g/J
2EEn/ 2En/	8c/L 8g/L	4b\
.	8An/	.
.	8A/	(8a/L
.	8c/J 8g/J	8g/J)
=36	=36	=36
!!linebreak:original
1DD/ 1D/	8d/L 8f#/L	4an/
.	8An/	.
.	8A/	4r
.	8d/J 8f#/J	.
.	8d/L 8f#/L	4r
.	8A/	.
.	8A/	4d/
.	8d/J 8f#/J	.
=37	=37	=37
2GG/ 2G/	8d/L 8g/L	4bn\
.	8Bn/	.
.	8B/	4g/
.	8d/J 8g/J	.
2FF/ 2F/	8d/L 8g/L	4dd\
.	8B/	.
.	8B/	4g/
.	8d/J 8g/J	.
=38	=38	=38
1EE-/ 1E-/	8e-/L 8g/L	([2ee-\
.	8c/	.
.	8c/	.
.	8e-/J 8g/J	.
.	8e-/L 8g/L	8ee-\L]
.	8B-/	8dd-\J)
.	8B-/	8cc\L
.	8e-/J 8g/J	8b-\J
=39	=39	=39
!!linebreak:original
2AA-\ 2A-\	8e-/L 8a-/L	(4bn\
.	8c/	.
.	8c/	4cc\)
.	8e-/J 8a-/J	.
2GG/ 2G/	8en/L 8b-/L	4r
.	8c/	.
.	8c/	8cc\L
.	8e/J 8b-/J	8b-\J
=40	=40	=40
4FF/ 4F/	8f/L 8a-/L	8a-/L
.	8c/	8f/J
4EE-/ 4E-/	8c/	8cc\L
.	8f/J 8a-/J	8a-\J
4DD/ 4D/	8f/L 8a-/L	4ff\
.	8B-/	.
4CC/ 4C/	8B-/	4ee-\
.	8f/J 8a-/J	.
=41	=41	=41
4BBB-/ 4BB-/	8f/L 8a-/L	(4ee-\
.	8B-/	.
4BBB-/ 4BB-/	8B-/	4dd\)
.	8f/J 8a-/J	.
4CC/ 4C/	8f/L 8a-/L	4r
.	8B-/	.
4DD/ 4D/	8B-/	4b-\
.	8f/J 8a-/J	.
=42	=42	=42
!!linebreak:original
2EE-/ 2E-/	8e-/L 8g/L	(8ee-\L
.	8B-/	8ff\
.	8B-/	8gg\
.	8e-/J 8g/J	8dd\J
2EE-/ 2E-/	8e-/L 8g/L	8ff\L
.	8c/	8ee-\J)
.	8c/	8dd\L
.	8e-/J 8g/J	8cc\J
=43	=43	=43
2EE-/ 2E-/	8f/L 8a-/L	(8b-/L
.	8c/	8a-/
.	8c/	8g/
.	8f/J 8a-/J	8a-/J
2DD/ 2D/	8f/L 8a-/L	8dd\L
.	8B-/	8cc\J)
.	8B-/	8b-/L
.	8f/J 8a-/J	8a-/J
=44	=44	=44
4EE-/ 4E-/	8e-/L 8g/L	4g/
.	8B-/	.
4EE-/ 4E-/	8B-/	4r
.	8e-/J 8g/J	.
4FF/ 4F/	8e-/L 8a-/L	4r
.	8B-/	.
4BBB-/ 4BB-/	8B-/	4b-\
.	8e-/J 8a-/J	.
=45	=45	=45
2EE-/ 2E-/	8e-/L 8g/L	4.ee-\
.	8B-/	.
.	8B-/	.
.	8e-/J 8g/J	8e-/
2DD-/ 2D-/	8e-/L 8g/L	8e-/L
.	8B-/	8g/J
.	8B-/	8b-\L
.	8e-/J 8g/J	8ee-\J
=46	=46	=46
!!linebreak:original
2CC-/ 2C-/	8e-/L 8a-/L	4.ee-\
.	8A-/	.
.	8A-/	.
.	8e-/J 8a-/J	8e-/
2BBB-/ 2BB-/	8e-/L 8g-/L	8e-/L
.	8B-/	8g-/J
.	8B-/	8b-\L
.	8e-/J 8g-/J	8ee-\J
=47	=47	=47
2AAAn/ 2AAn/	8e-/L 8g-/L	4.ee-\
.	8c/	.
.	8c/	.
.	8e-/J 8f/J	8ff\
2FFF/ 2FF/	8e-/L 8an/L	4gg-\
.	8c/	.
.	8c/	4an/
.	8e-/J 8f/J	.
=48	=48	=48
4BBB-/ 4BB-/	8d/L	4b-\
.	8B-/	.
4AA-\ 4A-\	8d/ 8f/	4r
.	8B-/J	.
4GG/ 4G/	8e-/L 8g/L	4r
.	8B-/	.
4FF/ 4F/	8d/ 8a-/	4b-\
.	8B-/J	.
=49	=49	=49
!!linebreak:original
4EE-/ 4E-/	4B-/ 4e-/ 4g/	(8b-\
.	.	4gg\
4BBn/	4a-\ 4dd\	.
.	.	4ff\
4C/	4g/ 4cc/	.
.	.	4ee-\)
4GG/	4f/ 4bn/	.
.	.	8dd\
=50	=50	=50
4AA-/	4e-/ 4a-/	8dd\
.	.	4cc\
4EEn/	4d-/ 4g/	.
.	.	4b-\
4FF/	4c/ 4f/	.
.	.	4a-/
4GG/	4B-/ 4d-/	.
.	.	[8g/
=51	=51	=51
2AA-/	2A-/ 2c/	8g/L]
.	.	8en/
.	.	8f/
.	.	8g/J
2r	2r	8a-/L
.	.	8b-/J
.	.	8bn\L
.	.	8cc\J
=52	=52	=52
*^	*	*
8B-/L	1BBB-/ 1BB-/	4A-/ 4d/	2.e-/
8c/J	.	.	.
8An/J	.	4r	.
8F#/J	.	.	.
4G/ 4B-/	.	4r	.
4r	.	4r	8g/L
.	.	.	8f/J
*v	*v	*	*
=53	=53	=53
2EE-/ 2E-/	4G/ 4e-/	4e-/
.	4r	4r
2r	2r	2r
==	==	==
*-	*-	*-
